src/icons/icons_set_01/027-restaurant.svg

<svg height="50" viewBox="0 0 50 50" width="50" xmlns="http://www.w3.org/2000/svg"><g fill="#000" fill-rule="nonzero"><path d="m18.8911844 30.5829402c.3338891-.4399278.9611917-.5258891 1.4011195-.192.4399278.3338892.5258892.9611917.192 1.4011196-3.5300902 4.6511992-5.5126727 7.2806216-5.9205704 7.8516784-.4222985.5912178-.317266 1.5352805.3928204 2.0425795.6256891.4470039 1.2324507.2623268 1.7752248-.3890021.3790019-.4548023 1.950587-2.7807481 4.6197944-6.8461565.3031165-.4616696.9230981-.5902024 1.3847678-.287086.4616696.3031165.5902024.9230981.287086 1.3847678-2.7474592 4.1845916-4.3008742 6.4836458-4.7552056 7.0288435-1.1410706 1.3692847-2.8568667 1.8915131-4.474287.7359979-1.6506578-1.1792606-1.8954499-3.3795254-.8576678-4.8324205.4254356-.5956099 2.4013492-3.2161874 5.9549179-7.8983216z"/><path d="m17.9813805 24.7694197c-.7265889-.0057699-1.5262799-.1299786-2.3149133-.4461991-.6457391-.2589238-1.2218683-.6310525-1.7011943-1.1315646-1.0272568-1.0726614-3.5325668-4.600973-7.60909252-10.6983614-.30695691-.4591251-.18360018-1.0801573.27552497-1.3871142s1.08015736-.1836002 1.38711427.275525c3.98787898 5.9647966 6.48256898 9.4781517 7.39090748 10.4266386.2716929.2837017.6080269.5009438 1.0010779.6585466.6424212.2575934 1.3428452.3291852 1.9147517.2937625.4322696-.0463234.7948823.121082 1.0031778.4298225l12.1911061 18.0699493c.7391456.4254446 1.2978642.3950164 1.8638511-.0479299.5592747-.4376932.6744226-.8731449.3780887-1.5686382l-13.1755022-16.9041065c-.1727587-.2216486-.244281-.5057598-.197059-.7827865.379934-2.2288754.2757766-3.6267959-.1447626-4.1226594-.7017915-.8274918-3.033712-4.0721952-7.0636484-9.82318039-.3169387-.45229233-.2072128-1.07587723.2450795-1.39281586.4522923-.31693862 1.0758772-.20721277 1.3928159.24507956 3.970389 5.66600699 6.3100396 8.92146639 6.9510648 9.67730789.8727203 1.0290363 1.0459592 2.780029.6618182 5.3132233l12.9823793 16.6563308c.0466718.0598796.0863727.1248794.1183355.1937431.7334095 1.5801259.4156217 3.0413788-.9159931 4.0835122-1.3089314 1.0243811-2.8345763 1.0243811-4.3445659.0536735-.1142155-.0734243-.2122818-.1693392-.288221-.2818982z"/><path d="m9.67215971 9.93596386c-.30981179-.45720356-.19032714-1.07899236.26687643-1.38880415.45720356-.30981179 1.07899236-.19032714 1.38880416.26687643l6.4372558 9.49975586c.3098118.4572036.1903272 1.0789924-.2668764 1.3888041-.4572035.3098118-1.0789923.1903272-1.3888041-.2668764z"/><path d="m23.558012 15.0888018c-.5502334-.0475571-.957733-.5321621-.9101759-1.0823954.0475571-.5502334.5321621-.957733 1.0823955-.9101759.0586857.0050723.1934291-.044604.4082417-.2064769.3071607-.2314622.6700191-.6245471 1.073757-1.1772521l.0742744-.1016794.0971628-.0800924c2.0002499-1.6488284 5.0471451-2.61481961 8.3274858-2.61481961 5.8028364 0 10.6338737 3.00878181 10.6338737 7.00000001s-4.8310373 7-10.6338737 7c-3.1333887 0-6.0564912-.8809862-8.0591877-2.4025297-.4588127-.3485817-.8179653-.6597916-1.1759472-1.0044496-.0949477-.0914138-.3791504-.3719899-.3491885-.3426439-.1019466-.0998508-.1682423-.1613953-.2254605-.2089873-.1596654-.1328035-.2873172-.18296-.683805-.2303049-.5483889-.0654835-.939861-.5631254-.8743775-1.1115143s.5631254-.939861 1.1115143-.8743775c.7603694.0907963 1.2504743.2833665 1.7256102.6785663-.0587655-.0488789 1.0635135 1.0316295 1.6815657 1.5011931 1.6351939 1.2423343 4.132689 1.9950478 6.8492762 1.9950478 4.8384466 0 8.6338737-2.3638012 8.6338737-5s-3.7954271-5-8.6338737-5c-2.7861596 0-5.3379087.7923672-6.9627793 2.0831792-1.0737183 1.4398506-2.0914005 2.1846967-3.190362 2.0897125z" transform="matrix(.60181502 -.79863551 .79863551 .60181502 .564688 32.964408)"/></g></svg>

<?xml version="1.0" encoding="UTF-8"?>
<svg width="50px" height="50px" viewBox="0 0 50 50" version="1.1" xmlns="http://www.w3.org/2000/svg" xmlns:xlink="http://www.w3.org/1999/xlink">
    <!-- Generator: Sketch 52.2 (67145) - http://www.bohemiancoding.com/sketch -->
    <title>027-restaurant</title>
    <desc>Created with Sketch.</desc>
    <g id="027-restaurant" stroke="none" stroke-width="1" fill="none" fill-rule="evenodd">
        <path d="M18.8911844,30.5829402 C19.2250735,30.1430124 19.8523761,30.0570511 20.2923039,30.3909402 C20.7322317,30.7248294 20.8181931,31.3521319 20.4843039,31.7920598 C16.9542137,36.443259 14.9716312,39.0726814 14.5637335,39.6437382 C14.141435,40.234956 14.2464675,41.1790187 14.9565539,41.6863177 C15.582243,42.1333216 16.1890046,41.9486445 16.7317787,41.2973156 C17.1107806,40.8425133 18.6823657,38.5165675 21.3515731,34.4511591 C21.6546896,33.9894895 22.2746712,33.8609567 22.7363409,34.1640731 C23.1980105,34.4671896 23.3265433,35.0871712 23.0234269,35.5488409 C20.2759677,39.7334325 18.7225527,42.0324867 18.2682213,42.5776844 C17.1271507,43.9469691 15.4113546,44.4691975 13.7939343,43.3136823 C12.1432765,42.1344217 11.8984844,39.9341569 12.9362665,38.4812618 C13.3617021,37.8856519 15.3376157,35.2650744 18.8911844,30.5829402 Z" id="Path-2" fill="#000000" fill-rule="nonzero"></path>
        <path d="M17.9813805,24.7694197 C17.2547916,24.7636498 16.4551006,24.6394411 15.6664672,24.3232206 C15.0207281,24.0642968 14.4445989,23.6921681 13.9652729,23.191656 C12.9380161,22.1189946 10.4327061,18.590683 6.35618038,12.4932946 C6.04922347,12.0341695 6.1725802,11.4131373 6.63170535,11.1061804 C7.0908305,10.7992235 7.71186271,10.9225802 8.01881962,11.3817054 C12.0066986,17.346502 14.5013886,20.8598571 15.4097271,21.808344 C15.68142,22.0920457 16.017754,22.3092878 16.410805,22.4668906 C17.0532262,22.724484 17.7536502,22.7960758 18.3255567,22.7606531 C18.7578263,22.7143297 19.120439,22.8817351 19.3287345,23.1904756 L31.5198406,41.2604249 C32.2589862,41.6858695 32.8177048,41.6554413 33.3836917,41.212495 C33.9429664,40.7748018 34.0581143,40.3393501 33.7617804,39.6438568 L20.5862782,22.7397503 C20.4135195,22.5181017 20.3419972,22.2339905 20.3892192,21.9569638 C20.7691532,19.7280884 20.6649958,18.3301679 20.2444566,17.8343044 C19.5426651,17.0068126 17.2107446,13.7621092 13.1808082,8.01112401 C12.8638695,7.55883168 12.9735954,6.93524678 13.4258877,6.61830815 C13.87818,6.30136953 14.5017649,6.41109538 14.8187036,6.86338771 C18.7890926,12.5293947 21.1287432,15.7848541 21.7697684,16.5406956 C22.6424887,17.5697319 22.8157276,19.3207246 22.4315866,21.8539189 L35.4139659,38.5102497 C35.4606377,38.5701293 35.5003386,38.6351291 35.5323014,38.7039928 C36.2657109,40.2841187 35.9479231,41.7453716 34.6163083,42.787505 C33.3073769,43.8118861 31.781732,43.8118861 30.2717424,42.8411785 C30.1575269,42.7677542 30.0594606,42.6718393 29.9835214,42.5592803 L17.9813805,24.7694197 Z" id="Path-3" fill="#000000" fill-rule="nonzero"></path>
        <path d="M9.67215971,9.93596386 C9.36234792,9.4787603 9.48183257,8.8569715 9.93903614,8.54715971 C10.3962397,8.23734792 11.0180285,8.35683257 11.3278403,8.81403614 L17.7650961,18.313792 C18.0749079,18.7709956 17.9554233,19.3927844 17.4982197,19.7025961 C17.0410162,20.0124079 16.4192274,19.8929233 16.1094156,19.4357197 L9.67215971,9.93596386 Z" id="Path-4" fill="#000000" fill-rule="nonzero"></path>
        <path d="M23.558012,15.0888018 C23.0077786,15.0412447 22.600279,14.5566397 22.6478361,14.0064064 C22.6953932,13.456173 23.1799982,13.0486734 23.7302316,13.0962305 C23.7889173,13.1013028 23.9236607,13.0516265 24.1384733,12.8897536 C24.445634,12.6582914 24.8084924,12.2652065 25.2122303,11.7125015 L25.2865047,11.6108221 L25.3836675,11.5307297 C27.3839174,9.8819013 30.4308126,8.91591009 33.7111533,8.91591009 C39.5139897,8.91591009 44.345027,11.9246919 44.345027,15.9159101 C44.345027,19.9071283 39.5139897,22.9159101 33.7111533,22.9159101 C30.5777646,22.9159101 27.6546621,22.0349239 25.6519656,20.5133804 C25.1931529,20.1647987 24.8340003,19.8535888 24.4760184,19.5089308 C24.3810707,19.417517 24.096868,19.1369409 24.1268299,19.1662869 C24.0248833,19.0664361 23.9585876,19.0048916 23.9013694,18.9572996 C23.741704,18.8244961 23.6140522,18.7743396 23.2175644,18.7269947 C22.6691755,18.6615112 22.2777034,18.1638693 22.3431869,17.6154804 C22.4086704,17.0670915 22.9063123,16.6756194 23.4547012,16.7411029 C24.2150706,16.8318992 24.7051755,17.0244694 25.1803114,17.4196692 C25.1215459,17.3707903 26.2438249,18.4512987 26.8618771,18.9208623 C28.497071,20.1631966 30.9945661,20.9159101 33.7111533,20.9159101 C38.5495999,20.9159101 42.345027,18.5521089 42.345027,15.9159101 C42.345027,13.2797113 38.5495999,10.9159101 33.7111533,10.9159101 C30.9249937,10.9159101 28.3732446,11.7082773 26.748374,12.9990893 C25.6746557,14.4389399 24.6569735,15.183786 23.558012,15.0888018 Z" id="Oval" fill="#000000" fill-rule="nonzero" transform="translate(33.340531, 15.915910) rotate(-53.000000) translate(-33.340531, -15.915910) "></path>
    </g>
</svg>
